Newaita-dark/actions/16/object-flip-horizontal.svg

<svg height="16" viewBox="0 0 16 16" width="16" xmlns="http://www.w3.org/2000/svg"><g fill="#e0e0e0"><path d="m13.230469 4.425781c.734375 0 1.324219.589844 1.324219 1.320313v4.632812c0 .734375-.589844 1.324219-1.324219 1.324219h-2.644531c-.734376 0-1.324219-.589844-1.324219-1.324219v-4.632812c0-.730469.589843-1.320313 1.324219-1.320313zm0 0"/><path d="m5.292969 4.425781c.730469 0 1.320312.589844 1.320312 1.320313v4.632812c0 .734375-.589843 1.324219-1.320312 1.324219h-2.648438c-.730469 0-1.320312-.589844-1.320312-1.324219v-4.632812c0-.730469.589843-1.320313 1.320312-1.320313zm-.664063 1.320313h-1.320312c-.367188 0-.664063.296875-.664063.664062v3.308594c0 .363281.296875.660156.664063.660156h1.320312c.367188 0 .664063-.296875.664063-.660156v-3.308594c0-.367187-.296875-.664062-.664063-.664062zm0 0"/><path d="m3.96875 1.449219c.367188 0 .660156.296875.660156.660156 0 .367187-.292968.660156-.660156.660156-.363281 0-.660156-.292969-.660156-.660156 0-.363281.296875-.660156.660156-.660156zm0 0"/><path d="m3.96875 13.355469c.367188 0 .660156.296875.660156.660156 0 .367187-.292968.664063-.660156.664063-.363281 0-.660156-.296876-.660156-.664063 0-.363281.296875-.660156.660156-.660156zm0 0"/><path d="m11.90625 1.449219c.367188 0 .664062.296875.664062.660156 0 .367187-.296874.660156-.664062.660156-.363281 0-.660156-.292969-.660156-.660156 0-.363281.296875-.660156.660156-.660156zm0 0"/><path d="m11.90625 13.355469c.367188 0 .664062.296875.664062.660156 0 .367187-.296874.664063-.664062.664063-.363281 0-.660156-.296876-.660156-.664063 0-.363281.296875-.660156.660156-.660156zm0 0"/><path d="m7.9375 6.078125c.367188 0 .664062.296875.664062.660156 0 .367188-.296874.664063-.664062.664063-.363281 0-.660156-.296875-.660156-.664063 0-.363281.296875-.660156.660156-.660156zm0 0"/><path d="m7.9375 8.726562c.367188 0 .664062.292969.664062.660157 0 .363281-.296874.660156-.664062.660156-.363281 0-.660156-.296875-.660156-.660156 0-.367188.296875-.660157.660156-.660157zm0 0"/></g></svg>

<?xml version="1.0" encoding="UTF-8"?>
<svg xmlns="http://www.w3.org/2000/svg" xmlns:xlink="http://www.w3.org/1999/xlink" width="16px" height="16px" viewBox="0 0 16 16" version="1.1">
<g id="surface1">
<path style=" stroke:none;fill-rule:nonzero;fill:rgb(87.843138%,87.843138%,87.843138%);fill-opacity:1;" d="M 13.230469 4.425781 C 13.964844 4.425781 14.554688 5.015625 14.554688 5.746094 L 14.554688 10.378906 C 14.554688 11.113281 13.964844 11.703125 13.230469 11.703125 L 10.585938 11.703125 C 9.851562 11.703125 9.261719 11.113281 9.261719 10.378906 L 9.261719 5.746094 C 9.261719 5.015625 9.851562 4.425781 10.585938 4.425781 Z M 13.230469 4.425781 "/>
<path style=" stroke:none;fill-rule:nonzero;fill:rgb(87.843138%,87.843138%,87.843138%);fill-opacity:1;" d="M 5.292969 4.425781 C 6.023438 4.425781 6.613281 5.015625 6.613281 5.746094 L 6.613281 10.378906 C 6.613281 11.113281 6.023438 11.703125 5.292969 11.703125 L 2.644531 11.703125 C 1.914062 11.703125 1.324219 11.113281 1.324219 10.378906 L 1.324219 5.746094 C 1.324219 5.015625 1.914062 4.425781 2.644531 4.425781 Z M 4.628906 5.746094 L 3.308594 5.746094 C 2.941406 5.746094 2.644531 6.042969 2.644531 6.410156 L 2.644531 9.71875 C 2.644531 10.082031 2.941406 10.378906 3.308594 10.378906 L 4.628906 10.378906 C 4.996094 10.378906 5.292969 10.082031 5.292969 9.71875 L 5.292969 6.410156 C 5.292969 6.042969 4.996094 5.746094 4.628906 5.746094 Z M 4.628906 5.746094 "/>
<path style=" stroke:none;fill-rule:nonzero;fill:rgb(87.843138%,87.843138%,87.843138%);fill-opacity:1;" d="M 3.96875 1.449219 C 4.335938 1.449219 4.628906 1.746094 4.628906 2.109375 C 4.628906 2.476562 4.335938 2.769531 3.96875 2.769531 C 3.605469 2.769531 3.308594 2.476562 3.308594 2.109375 C 3.308594 1.746094 3.605469 1.449219 3.96875 1.449219 Z M 3.96875 1.449219 "/>
<path style=" stroke:none;fill-rule:nonzero;fill:rgb(87.843138%,87.843138%,87.843138%);fill-opacity:1;" d="M 3.96875 13.355469 C 4.335938 13.355469 4.628906 13.652344 4.628906 14.015625 C 4.628906 14.382812 4.335938 14.679688 3.96875 14.679688 C 3.605469 14.679688 3.308594 14.382812 3.308594 14.015625 C 3.308594 13.652344 3.605469 13.355469 3.96875 13.355469 Z M 3.96875 13.355469 "/>
<path style=" stroke:none;fill-rule:nonzero;fill:rgb(87.843138%,87.843138%,87.843138%);fill-opacity:1;" d="M 11.90625 1.449219 C 12.273438 1.449219 12.570312 1.746094 12.570312 2.109375 C 12.570312 2.476562 12.273438 2.769531 11.90625 2.769531 C 11.542969 2.769531 11.246094 2.476562 11.246094 2.109375 C 11.246094 1.746094 11.542969 1.449219 11.90625 1.449219 Z M 11.90625 1.449219 "/>
<path style=" stroke:none;fill-rule:nonzero;fill:rgb(87.843138%,87.843138%,87.843138%);fill-opacity:1;" d="M 11.90625 13.355469 C 12.273438 13.355469 12.570312 13.652344 12.570312 14.015625 C 12.570312 14.382812 12.273438 14.679688 11.90625 14.679688 C 11.542969 14.679688 11.246094 14.382812 11.246094 14.015625 C 11.246094 13.652344 11.542969 13.355469 11.90625 13.355469 Z M 11.90625 13.355469 "/>
<path style=" stroke:none;fill-rule:nonzero;fill:rgb(87.843138%,87.843138%,87.843138%);fill-opacity:1;" d="M 7.9375 6.078125 C 8.304688 6.078125 8.601562 6.375 8.601562 6.738281 C 8.601562 7.105469 8.304688 7.402344 7.9375 7.402344 C 7.574219 7.402344 7.277344 7.105469 7.277344 6.738281 C 7.277344 6.375 7.574219 6.078125 7.9375 6.078125 Z M 7.9375 6.078125 "/>
<path style=" stroke:none;fill-rule:nonzero;fill:rgb(87.843138%,87.843138%,87.843138%);fill-opacity:1;" d="M 7.9375 8.726562 C 8.304688 8.726562 8.601562 9.019531 8.601562 9.386719 C 8.601562 9.75 8.304688 10.046875 7.9375 10.046875 C 7.574219 10.046875 7.277344 9.75 7.277344 9.386719 C 7.277344 9.019531 7.574219 8.726562 7.9375 8.726562 Z M 7.9375 8.726562 "/>
</g>
</svg>
